X: 8
T: Comb Your Hair And Curl It
R: slip jig
M: 9/8
L: 1/8
K: Edor
|:B2E E2F G2A | B2e ece dBA| B2E E2F G2A | B=cB ABG FED:|
g2e efe e2f | g3 efg afd| g2e efe e2c | d2B ABG FED |
g2e efe e2f | g3 efg afd| gfg afd g2e | d2B ABG FED |]


Tune 1030	Setting 1030

